SharedPackages/Infrastructure/DesignResourcesKitIcons/Sources/DesignResourcesKitIcons/DesignSystemImages.xcassets/Color/16px/Key-Color-16.imageset/Key-Color-16.svg

<svg width="16" height="16" viewBox="0 0 16 16" fill="none" xmlns="http://www.w3.org/2000/svg">
<g clip-path="url(#clip0_13193_106729)">
<path fill-rule="evenodd" clip-rule="evenodd" d="M15.5 5.56757C15.5 8.36631 13.2312 10.6351 10.4324 10.6351C9.99912 10.6351 9.57851 10.5808 9.17706 10.4784C8.87084 10.4004 8.53915 10.469 8.31711 10.6938L6.26868 12.7681C6.07947 12.9597 5.8214 13.0676 5.55212 13.0676H4.75288C4.41917 13.0676 4.14864 13.3381 4.14864 13.6718V14.2915C4.14864 14.9589 3.60759 15.5 2.94017 15.5H2.1113C1.2214 15.5 0.5 14.7786 0.5 13.8887V13.4573C0.5 12.8183 0.753121 12.2052 1.20399 11.7522L5.30092 7.63644C5.52024 7.4161 5.58764 7.09048 5.51297 6.7887C5.41621 6.39759 5.36487 5.98858 5.36487 5.56757C5.36487 2.76883 7.6337 0.5 10.4324 0.5C13.2312 0.5 15.5 2.76883 15.5 5.56757ZM10.8378 6.64865C11.6588 6.64865 12.3243 5.98312 12.3243 5.16216C12.3243 4.3412 11.6588 3.67567 10.8378 3.67567C10.0169 3.67567 9.35134 4.3412 9.35134 5.16216C9.35134 5.98312 10.0169 6.64865 10.8378 6.64865Z" fill="#FFC95C"/>
<path fill-rule="evenodd" clip-rule="evenodd" d="M4.86488 5.56757C4.86488 2.49269 7.35756 0 10.4324 0C13.5073 0 16 2.49269 16 5.56757C16 8.64245 13.5073 11.1351 10.4324 11.1351C9.95714 11.1351 9.49506 11.0755 9.05358 10.9629C8.89088 10.9215 8.75075 10.9663 8.67288 11.0451L6.62445 13.1194C6.3413 13.4062 5.9551 13.5676 5.55213 13.5676H4.75289C4.69532 13.5676 4.64865 13.6142 4.64865 13.6718V14.2915C4.64865 15.2351 3.88374 16 2.94017 16H2.1113C0.945262 16 0 15.0547 0 13.8887V13.4573C0 12.686 0.305485 11.9461 0.849624 11.3995L4.94656 7.2837C5.02353 7.20637 5.06722 7.06885 5.02761 6.90878C4.92121 6.47869 4.86488 6.02937 4.86488 5.56757ZM10.4324 1C7.90985 1 5.86488 3.04497 5.86488 5.56757C5.86488 5.94779 5.91123 6.31649 5.99835 6.66862C6.10807 7.11211 6.01696 7.62584 5.65529 7.98918L1.55835 12.105C1.20076 12.4642 1 12.9505 1 13.4573V13.8887C1 14.5025 1.49755 15 2.1113 15H2.94017C3.33145 15 3.64865 14.6828 3.64865 14.2915V13.6718C3.64865 13.062 4.14303 12.5676 4.75289 12.5676H5.55213C5.68771 12.5676 5.81765 12.5133 5.91292 12.4168L7.96135 10.3425C8.32756 9.97164 8.85082 9.8793 9.30055 9.99392C9.66198 10.086 10.0411 10.1351 10.4324 10.1351C12.955 10.1351 15 8.09017 15 5.56757C15 3.04497 12.955 1 10.4324 1ZM10.8378 4.17567C10.293 4.17567 9.85135 4.61734 9.85135 5.16216C9.85135 5.70698 10.293 6.14865 10.8378 6.14865C11.3827 6.14865 11.8243 5.70698 11.8243 5.16216C11.8243 4.61734 11.3827 4.17567 10.8378 4.17567ZM8.85135 5.16216C8.85135 4.06505 9.74073 3.17567 10.8378 3.17567C11.9349 3.17567 12.8243 4.06505 12.8243 5.16216C12.8243 6.25927 11.9349 7.14865 10.8378 7.14865C9.74073 7.14865 8.85135 6.25927 8.85135 5.16216Z" fill="#B66A1F"/>
</g>
<defs>
<clipPath id="clip0_13193_106729">
<rect width="16" height="16" fill="white"/>
</clipPath>
</defs>
</svg>

<svg fill="none" viewBox="0 0 16 16" xmlns="http://www.w3.org/2000/svg">
  <g fill-rule="evenodd" clip-path="url(#Key-Color-16_svg__a)" clip-rule="evenodd">
    <path fill="#FFDE7A" d="M15.5 5.568a5.068 5.068 0 0 1-6.323 4.91c-.306-.078-.638-.009-.86.216L6.27 12.768c-.19.192-.448.3-.717.3h-.8a.604.604 0 0 0-.603.604v.62c0 .667-.541 1.208-1.209 1.208h-.829A1.61 1.61 0 0 1 .5 13.889v-.432c0-.639.253-1.252.704-1.705l4.097-4.116a.892.892 0 0 0 .212-.847A5.068 5.068 0 1 1 15.5 5.568Zm-4.662 1.08a1.486 1.486 0 1 0 0-2.972 1.486 1.486 0 0 0 0 2.973Z"/>
    <path fill="url(#Key-Color-16_svg__b)" d="M4.865 5.568a5.568 5.568 0 1 1 4.189 5.395c-.163-.041-.303.003-.381.082L6.624 13.12a1.506 1.506 0 0 1-1.072.449h-.8a.104.104 0 0 0-.103.104v.62c0 .943-.765 1.708-1.709 1.708h-.829A2.111 2.111 0 0 1 0 13.889v-.432c0-.771.305-1.51.85-2.058l4.097-4.115c.077-.078.12-.215.08-.375a5.58 5.58 0 0 1-.162-1.341ZM10.432 1a4.568 4.568 0 0 0-4.434 5.669c.11.443.019.957-.343 1.32l-4.097 4.116A1.92 1.92 0 0 0 1 13.457v.432C1 14.503 1.498 15 2.111 15h.83a.708.708 0 0 0 .708-.709v-.62c0-.609.494-1.103 1.104-1.103h.8a.507.507 0 0 0 .36-.151l2.048-2.075c.367-.37.89-.463 1.34-.348A4.568 4.568 0 1 0 10.433 1Zm.406 3.176a.986.986 0 1 0 0 1.973.986.986 0 0 0 0-1.973Zm-1.987.986a1.986 1.986 0 1 1 3.973 0 1.986 1.986 0 0 1-3.973 0Z"/>
  </g>
  <defs>
    <linearGradient id="Key-Color-16_svg__b" x1="8" x2="8" y1="0" y2="16" gradientUnits="userSpaceOnUse">
      <stop stop-color="#C18010"/>
      <stop offset="1" stop-color="#92540C"/>
    </linearGradient>
    <clipPath id="Key-Color-16_svg__a">
      <path fill="#fff" d="M0 0h16v16H0z"/>
    </clipPath>
  </defs>
</svg>
